www/b14d48e0-1285-11e4-9191-0800200c9a66/Pump.svg

<?xml version="1.0" encoding="UTF-8" standalone="no"?>
<!-- Created with Inkscape (http://www.inkscape.org/) -->

<svg
   xmlns:dc="http://purl.org/dc/elements/1.1/"
   xmlns:cc="http://creativecommons.org/ns#"
   xmlns:rdf="http://www.w3.org/1999/02/22-rdf-syntax-ns#"
   xmlns:svg="http://www.w3.org/2000/svg"
   xmlns="http://www.w3.org/2000/svg"
   xmlns:xlink="http://www.w3.org/1999/xlink"
   xmlns:sodipodi="http://sodipodi.sourceforge.net/DTD/sodipodi-0.dtd"
   xmlns:inkscape="http://www.inkscape.org/namespaces/inkscape"
   width="80"
   height="85"
   id="svg2"
   version="1.1"
   inkscape:version="0.48.5 r10040"
   sodipodi:docname="Pump.svg">
  <defs
     id="defs4">
    <linearGradient
       id="linearGradient3755">
      <stop
         style="stop-color:#ffffff;stop-opacity:1;"
         offset="0"
         id="stop3757" />
      <stop
         style="stop-color:#aaaaaa;stop-opacity:1;"
         offset="1"
         id="stop3759" />
    </linearGradient>
    <radialGradient
       inkscape:collect="always"
       xlink:href="#linearGradient3755"
       id="radialGradient6526"
       cx="-57.75"
       cy="-13.750229"
       fx="-57.75"
       fy="-13.750229"
       r="38.277275"
       gradientTransform="matrix(1,0,0,0.66037288,0,-4.6699506)"
       gradientUnits="userSpaceOnUse" />
    <radialGradient
       inkscape:collect="always"
       xlink:href="#linearGradient3755"
       id="radialGradient6088"
       gradientUnits="userSpaceOnUse"
       gradientTransform="matrix(1,0,0,0.66037288,0,-4.6699506)"
       cx="-57.75"
       cy="-13.750229"
       fx="-57.75"
       fy="-13.750229"
       r="38.277275" />
  </defs>
  <sodipodi:namedview
     id="base"
     pagecolor="#ffffff"
     bordercolor="#666666"
     borderopacity="1.0"
     inkscape:pageopacity="0.0"
     inkscape:pageshadow="2"
     inkscape:zoom="5.78125"
     inkscape:cx="13.125354"
     inkscape:cy="34.772651"
     inkscape:document-units="px"
     inkscape:current-layer="layer1"
     showgrid="true"
     inkscape:window-width="1434"
     inkscape:window-height="846"
     inkscape:window-x="0"
     inkscape:window-y="0"
     inkscape:window-maximized="0"
     fit-margin-top="0"
     fit-margin-left="0"
     fit-margin-right="0"
     fit-margin-bottom="0"
     inkscape:snap-global="false"
     showguides="true"
     inkscape:guide-bbox="true">
    <inkscape:grid
       type="xygrid"
       id="grid3850"
       empspacing="5"
       visible="true"
       enabled="true"
       snapvisiblegridlinesonly="true"
       originx="19.992992px"
       originy="-0.00043231627px" />
  </sodipodi:namedview>
  <metadata
     id="metadata7">
    <rdf:RDF>
      <cc:Work
         rdf:about="">
        <dc:format>image/svg+xml</dc:format>
        <dc:type
           rdf:resource="http://purl.org/dc/dcmitype/StillImage" />
        <dc:title />
      </cc:Work>
    </rdf:RDF>
  </metadata>
  <g
     inkscape:label="Livello 1"
     inkscape:groupmode="layer"
     id="layer1"
     transform="translate(20.992992,-974.07363)">
    <path
       style="fill:#a0a0a0;fill-opacity:1;stroke:#000000;stroke-width:2;stroke-linecap:butt;stroke-linejoin:miter;stroke-miterlimit:4;stroke-opacity:1;stroke-dasharray:none"
       d="M 12,68 1,84 79,84 68,68 67.125,68 C 60.104816,74.803053 50.547833,79 40,79 29.452167,79 19.895184,74.803053 12.875,68 L 12,68 z"
       transform="translate(-20.992992,974.07363)"
       id="path5491"
       inkscape:connector-curvature="0" />
    <path
       sodipodi:type="arc"
       style="fill:url(#radialGradient6088);fill-opacity:1;stroke:#000000;stroke-width:1.55454707;stroke-miterlimit:4;stroke-opacity:1;stroke-dasharray:none"
       id="path6514"
       sodipodi:cx="-57.75"
       sodipodi:cy="-13.750229"
       sodipodi:rx="37.5"
       sodipodi:ry="24.5"
       d="m -20.25,-13.750229 c 0,13.53097649 -16.789322,24.5 -37.5,24.5 -20.710678,0 -37.5,-10.96902351 -37.5,-24.5 0,-13.530976 16.789322,-24.5 37.5,-24.5 20.710678,0 37.5,10.969024 37.5,24.5 z"
       transform="matrix(1.0399976,0,0,1.5918331,79.066869,1035.9617)" />
    <path
       style="fill:#a0a0a0;fill-opacity:1;stroke:#000000;stroke-width:2;stroke-linecap:butt;stroke-linejoin:miter;stroke-miterlimit:4;stroke-opacity:1;stroke-dasharray:none"
       d="M 40,1 C 50.769528,1 60.504904,5.3799043 67.5625,12.4375 L 79,1 40,1 z"
       transform="translate(-20.992992,974.07363)"
       id="path6083"
       inkscape:connector-curvature="0" />
  </g>
</svg>

<?xml version="1.0" encoding="UTF-8" standalone="no"?>
<svg xmlns:rdf="http://www.w3.org/1999/02/22-rdf-syntax-ns#" xmlns="http://www.w3.org/2000/svg" xmlns:cc="http://creativecommons.org/ns#" xmlns:xlink="http://www.w3.org/1999/xlink" xmlns:dc="http://purl.org/dc/elements/1.1/" id="svg2" height="85" width="80" version="1.1">
  <defs id="defs4">
    <radialGradient id="radialGradient6088" gradientUnits="userSpaceOnUse" cy="-13.75" cx="-57.75" gradientTransform="matrix(1 0 0 .66037 0 -4.67)" r="38.277">
      <stop id="stop3757" stop-color="#fff" offset="0"/>
      <stop id="stop3759" stop-color="#aaa" offset="1"/>
    </radialGradient>
  </defs>
  <g id="layer1" stroke="#000" transform="translate(20.993 -974.07)">
    <path id="path5491" stroke-width="2" transform="translate(-20.993 974.07)" fill="#a0a0a0" d="m12 68-11 16h78l-11-16h-0.875c-7.02 6.803-16.577 11-27.125 11s-20.105-4.197-27.125-11h-0.875z"/>
    <path id="path6514" stroke-width="1.5545" transform="matrix(1.04 0 0 1.5918 79.067 1036)" fill="url(#radialGradient6088)" d="m-20.25-13.75c0 13.531-16.789 24.5-37.5 24.5s-37.5-10.969-37.5-24.5 16.789-24.5 37.5-24.5 37.5 10.969 37.5 24.5z"/>
    <path id="path6083" stroke-width="2" transform="translate(-20.993 974.07)" fill="#a0a0a0" d="m40 1c10.77 0 20.505 4.3799 27.562 11.438l11.438-11.438h-39z"/>
  </g>
</svg>
